X: 170
M:4/4
L:1/8
Q:160
K:F
|: C2|DCDC A2 C2|DCDC a2 gf|f2 g2 g2 fg|a2 g2 g2 C2|DCDC A2 C2|DCDC a2 gf|A2 D2 D2 C2| F2 D2 D2:|

